build/images/icon-remind.svg

<svg width="31" height="28" viewBox="0 0 31 28" fill="none" xmlns="http://www.w3.org/2000/svg">
<path d="M26.1361 7.15534V0H4.86393V7.15534L0 10.5196V28H31V10.5196L26.1361 7.15534ZM11.0191 19.0464L1.81641 25.4116V12.6812L11.0191 19.0464ZM15.5 18.1086L27.2577 26.2411H3.7423L15.5 18.1086ZM19.9809 19.0464L29.1836 12.6812V25.4116L19.9809 19.0464ZM28.5293 10.9722L26.1361 12.6274V9.3169L28.5293 10.9722ZM24.3197 1.75893V13.8839L18.4184 17.9656L15.5 15.9471L12.5816 17.9656L6.68034 13.8839V1.75893H24.3197ZM4.86393 12.6275L2.47075 10.9722L4.86393 9.31696V12.6275Z" fill="#025BB1"/>
<path d="M9.24648 4.03709H15.4999V5.79602H9.24648V4.03709Z" fill="#025BB1"/>
<path d="M9.24648 8.07412H21.7534V9.83305H9.24648V8.07412Z" fill="#025BB1"/>
<path d="M9.24648 12.1112H21.7534V13.8701H9.24648V12.1112Z" fill="#025BB1"/>
</svg>

<svg width="31" height="28" fill="none" xmlns="http://www.w3.org/2000/svg"><path d="M26.136 7.155V0H4.864v7.155L0 10.52V28h31V10.52l-4.864-3.365zM11.02 19.046l-9.203 6.366v-12.73l9.203 6.364zm4.481-.937l11.758 8.132H3.742L15.5 18.11zm4.48.937l9.204-6.365v12.73l-9.203-6.365zm8.55-8.074l-2.394 1.655v-3.31l2.393 1.655zM24.32 1.76v12.125l-5.902 4.082-2.918-2.019-2.918 2.019-5.902-4.082V1.759h17.64zM4.864 12.627L2.47 10.973l2.393-1.655v3.31z" fill="#025BB1"/><path d="M9.246 4.037H15.5v1.759H9.246V4.037zm0 4.037h12.507v1.76H9.246v-1.76zm0 4.037h12.507v1.76H9.246v-1.76z" fill="#025BB1"/></svg>
